packages/core/src/svgs/tokens/branded/XDATA.svg

<svg width="24" height="24" viewBox="0 0 24 24" fill="none" xmlns="http://www.w3.org/2000/svg">
<path d="M11.9999 9.58713C16.6321 9.58713 20.3871 7.88869 20.3871 5.79356C20.3871 3.69843 16.6321 2 11.9999 2C7.36783 2 3.61279 3.69843 3.61279 5.79356C3.61279 7.88869 7.36783 9.58713 11.9999 9.58713Z" fill="#F0C419"/>
<path d="M3.61279 7.51608V9.92895C3.61279 12.0258 7.36765 13.7225 11.9999 13.7225C16.6322 13.7225 20.3871 12.0258 20.3871 9.92895V7.52254H20.3547C19.9677 9.45159 16.3742 10.9677 11.9999 10.9677C7.62572 10.9677 4.03215 9.4516 3.64505 7.51608H3.61279Z" fill="#25AE5F"/>
<path d="M3.61279 11.6581V14.0711C3.61279 16.1613 7.36765 17.8646 11.9999 17.8646C16.6322 17.8646 20.3871 16.1613 20.3871 14.0711V11.6581H20.3547C19.9677 13.5935 16.3742 15.1033 11.9999 15.1033C7.62572 15.1033 4.03215 13.5871 3.64505 11.6581H3.61279Z" fill="#E64C3C"/>
<path d="M3.61279 15.7935V18.2064C3.61279 20.3033 7.36765 22 11.9999 22C16.6322 22 20.3871 20.3033 20.3871 18.2064V15.7935H20.3547C19.9677 17.7291 16.3742 19.2387 11.9999 19.2387C7.62572 19.2387 4.03215 17.7291 3.64505 15.7935H3.61279Z" fill="#7A69A7"/>
</svg>

<svg xmlns="http://www.w3.org/2000/svg" width="24" height="24" fill="none" viewBox="0 0 24 24">
    <path fill="#F0C419" d="M12 9.587c4.632 0 8.387-1.698 8.387-3.793S16.632 2 12 2 3.613 3.698 3.613 5.794 7.368 9.587 12 9.587"/>
    <path fill="#25AE5F" d="M3.613 7.516V9.93c0 2.097 3.755 3.794 8.387 3.794s8.387-1.697 8.387-3.794V7.523h-.032c-.387 1.929-3.98 3.445-8.355 3.445-4.374 0-7.968-1.516-8.355-3.452z"/>
    <path fill="#E64C3C" d="M3.613 11.658v2.413c0 2.09 3.755 3.794 8.387 3.794s8.387-1.704 8.387-3.794v-2.413h-.032c-.387 1.936-3.98 3.445-8.355 3.445-4.374 0-7.968-1.516-8.355-3.445z"/>
    <path fill="#7A69A7" d="M3.613 15.794v2.412C3.613 20.303 7.368 22 12 22s8.387-1.697 8.387-3.794v-2.412h-.032c-.387 1.935-3.98 3.445-8.355 3.445-4.374 0-7.968-1.51-8.355-3.446z"/>
</svg>
